X: 603
T: Wangdengyun xiuqi
%%abc-version 2.0
%%abcx-abcm2ps-target-version 5.9.1 (29 Sep 2008)
%%abc-creator hum2abc beta
%%abcx-conversion-date 2013/10/02 07:52:30
%%abc-edited-by Helmut Schaffrath
%%humdrum-veritas 3397191724
%%humdrum-veritas-data 2053066267
%%continueall 1
%%barnumbers 0
L: 1/8
M: 2/4
K: G
G G E G [I:setbarnb 1]| 
A2G A | 
E E D B, | 
D2E2 | 
A B d d | 
d B A B | 
A G E G | 
D2z2 |]  



